svg/ricky/sitting/emotion/confused.svg

<?xml version="1.0" encoding="UTF-8"?>
<svg width="500px" height="600px" viewBox="0 0 500 600" version="1.1" xmlns="http://www.w3.org/2000/svg" xmlns:xlink="http://www.w3.org/1999/xlink">
    <title>confused</title>
    <defs>
        <polygon id="path-1" points="0.000358924701 0.454 182.161418 0.454 182.161418 198.107401 0.000358924701 198.107401"></polygon>
    </defs>
    <g id="confused" stroke="none" stroke-width="1" fill="none" fill-rule="evenodd">
        <g transform="translate(169.000000, 58.000000)">
            <g id="face" transform="translate(0.000000, 0.546000)">
                <mask id="mask-2" fill="white">
                    <use xlink:href="#path-1"></use>
                </mask>
                <g id="Clip-4"></g>
                <path d="M172.495,104.5349 C172.227,106.0479 171.927,107.5579 171.616,109.0679 C171.547,109.3019 171.496,109.5399 171.466,109.7829 C170.813,112.8959 170.103,116.0029 169.409,119.0969 C169.026,120.8039 168.547,123.0969 166.918,124.0889 C165.988,124.6539 163.332,124.4499 163.559,122.8539 C163.608,122.5109 163.494,122.2269 163.307,122.0129 C163.439,113.2759 162.138,104.6229 160.487,95.9929 C161.054,95.9069 161.574,95.5839 161.929,95.0489 C161.999,94.9429 162.069,94.8389 162.142,94.7359 C162.153,94.7209 162.186,94.6759 162.219,94.6339 C162.266,94.5759 162.324,94.5049 162.341,94.4859 C162.406,94.4099 162.473,94.3349 162.541,94.2599 C162.865,93.9039 163.224,93.5969 163.581,93.2759 L163.59,93.2669 C163.592,93.2659 163.592,93.2659 163.594,93.2639 C163.676,93.2059 163.758,93.1459 163.84,93.0899 C164.026,92.9609 164.218,92.8389 164.413,92.7219 C164.607,92.6049 164.806,92.4949 165.008,92.3909 C165.12,92.3349 165.233,92.2789 165.348,92.2249 C165.393,92.2039 165.439,92.1819 165.485,92.1629 C165.62,92.1019 165.577,92.1199 165.355,92.2149 C165.445,92.1019 165.866,92.0199 165.993,91.9769 C166.209,91.9049 166.426,91.8399 166.645,91.7819 C166.864,91.7229 167.086,91.6729 167.308,91.6299 C167.407,91.6099 167.507,91.5939 167.606,91.5759 C167.603,91.5749 167.599,91.5759 167.598,91.5739 C167.599,91.5749 167.605,91.5749 167.607,91.5759 C167.632,91.5719 167.656,91.5669 167.681,91.5629 C167.968,91.5139 167.713,91.5819 167.625,91.5799 C167.689,91.5879 167.874,91.5699 168.045,91.5509 C168.646,91.7489 169.218,92.0359 169.708,92.4339 C173.271,95.3349 173.224,100.4239 172.495,104.5349 M161.283,124.2969 C161.2,125.8999 161.047,127.5069 160.858,129.1099 C160.639,129.7179 160.566,130.3769 160.621,131.0249 C160.378,132.6879 160.042,134.3349 159.665,135.9719 C158.325,140.1539 156.406,144.1129 153.971,147.7609 L153.947,147.7339 C151.092,150.9959 147.729,153.8309 144.256,156.4329 C137.736,161.3179 130.976,165.9069 124.21,170.4389 C120.202,173.1239 116.163,175.7629 112.099,178.3589 C111.887,178.4949 111.757,178.6709 111.689,178.8589 C110.364,179.6869 108.997,180.4379 107.542,181.0269 C102.104,183.2239 96.329,182.2229 90.991,180.2489 C85.975,178.3929 81.167,175.8689 76.403,173.4479 C67.881,169.1179 59.4,164.2839 52.483,157.5979 C45.317,150.6689 40.726,141.9399 39.176,132.0819 C37.568,121.8619 38.922,111.3819 40.322,101.2219 C40.989,96.3799 41.693,91.5179 42.22,86.6419 C47.019,89.1969 52.133,89.7649 55.928,83.8619 C57.701,81.1019 58.852,78.0019 59.545,74.7689 C62.288,76.5689 65.301,77.5269 68.618,76.6229 C71.837,75.7459 74.391,73.2299 75.85,70.3059 C77.11,67.7789 76.853,64.4989 78.159,62.1129 C81.219,63.8319 84.602,64.9109 88.068,65.0389 C96.007,65.3319 100.384,59.3059 102.857,52.5159 C106.765,54.5589 111.701,54.5839 115.546,52.3169 C115.796,52.9449 116.084,53.5579 116.407,54.1559 C117.898,58.6389 121.85,62.1959 126.421,63.5419 C129.409,64.4219 132.562,64.2709 135.406,62.9849 C135.471,62.9559 135.538,62.9189 135.603,62.8879 C135.56,68.8059 136.821,74.5629 141.225,79.1479 C145.159,83.2439 150.826,84.8759 156.027,83.8139 C156.044,83.8949 156.058,83.9769 156.074,84.0579 C156.079,84.1839 156.086,84.3089 156.09,84.4349 C156.119,85.3179 156.329,86.1559 156.654,86.9399 C157.013,88.7059 157.373,90.4719 157.728,92.2349 C159.85,102.7669 161.84,113.5059 161.283,124.2969 M102.517,191.1329 C100.962,193.6609 98.64,196.3529 95.395,196.0899 C92.273,195.8359 90.579,192.7119 89.346,190.1259 C89.42,189.9919 89.473,189.8389 89.473,189.6469 L89.473,181.8069 C92.815,183.1189 96.275,184.1039 99.871,184.2859 C100.721,184.3289 101.547,184.2939 102.363,184.2239 L102.363,190.6399 C102.363,190.8209 102.429,190.9839 102.517,191.1329 M36.517,123.3419 C36.469,123.3649 36.422,123.3899 36.385,123.4309 C36.299,123.5239 36.227,123.6529 36.238,123.7839 C36.241,123.8219 36.237,123.8589 36.235,123.8969 C36.227,123.9329 36.218,123.9689 36.206,124.0039 C36.19,124.0339 36.174,124.0619 36.156,124.0899 C36.118,124.1289 36.08,124.1679 36.042,124.2059 C35.962,124.2879 35.915,124.4009 35.904,124.5159 C35.9,124.5159 35.896,124.5149 35.891,124.5139 C35.634,124.3789 35.314,124.3529 34.981,124.5319 C33.108,125.5439 31.288,123.8279 30.145,122.4669 C28.802,120.8639 27.876,118.8899 26.928,117.0419 C24.947,113.1829 23.224,108.8799 23.831,104.4589 C24.307,100.9989 26.302,97.2649 29.933,96.3759 C32.895,95.6509 36.642,96.8909 37.594,100.0199 C37.72,100.4329 38.025,100.6349 38.356,100.6899 C37.292,108.2229 36.386,115.7639 36.517,123.3419 M99.186,3.8299 C97.715,3.2469 96.189,2.8029 94.622,2.5069 C96.22,2.6429 97.766,3.1049 99.186,3.8299 M182.023,100.6849 C181.872,99.5389 181.549,98.4689 181.244,97.3579 C180.85,95.9199 181.141,94.7439 181.461,93.3279 C182.508,88.6999 181.017,83.7939 177.595,80.5159 C180.68,73.2679 178.877,64.3449 173.026,58.9869 C173.079,57.6219 172.667,56.4169 172.016,55.3119 C171.591,54.2519 170.902,53.4059 170.042,52.7819 C169.754,52.4779 169.46,52.1789 169.162,51.8859 C169.011,51.7369 168.849,51.5889 168.684,51.4379 C168.339,48.5569 167.976,45.6199 167.303,42.8389 C167.268,42.4049 167.226,41.9719 167.168,41.5389 C166.726,38.2789 165.673,34.4019 163.276,31.9979 C161.641,30.3569 158.993,29.6469 156.982,30.7429 C155.924,28.1849 154.43,25.7579 152.549,23.7109 C151.573,22.1759 150.316,20.8309 148.676,19.8189 C146.326,18.3689 143.599,18.2229 141.157,18.9829 C140.674,15.4699 138.349,12.2779 134.897,11.0209 C130.914,9.5689 126.25,11.2869 123.815,14.6509 C121.557,11.7759 118.989,8.9399 115.438,7.7799 C112.698,6.8859 109.435,7.1519 107.132,8.9059 C107.03,8.8079 106.929,8.7039 106.826,8.6099 C106.751,8.5409 106.669,8.4829 106.593,8.4159 C104.126,3.8709 99.378,0.6849 94.124,0.4659 C88.487,0.2289 83.219,3.5289 80.55,8.3739 C76.79,4.8589 70.738,4.1579 66.21,6.6229 C65.617,6.9459 65.061,7.3319 64.538,7.7589 C63.956,8.2339 63.436,8.9799 62.766,9.3249 C61.829,9.8079 60.935,9.0259 60.093,8.6419 C59.307,8.2849 58.489,8.0099 57.64,7.8499 C54.417,7.2469 51.017,8.0099 48.466,10.0969 C46.292,11.8749 44.926,14.4959 44.558,17.2559 C43.705,18.3189 42.984,19.4629 42.384,20.6739 C38.181,16.4309 30.07,16.9059 26.933,22.3049 C26.024,23.8679 25.599,25.6609 24.698,27.2269 C24.301,27.9179 23.805,28.5729 23.082,28.9489 C21.883,29.5729 20.445,29.3319 19.151,29.2949 C15.179,29.1789 12.147,31.5749 10.875,35.2979 C9.624,38.9619 10.684,42.6849 12.367,46.0489 C12.692,46.8599 13.079,47.6459 13.536,48.3999 C7.817,50.4889 5.327,58.4129 8.256,63.6109 C8.298,64.0829 8.363,64.5519 8.453,65.0149 C3.558,66.7519 -0.192,71.5249 0.008,76.8859 C0.209,82.3099 4.315,86.9599 9.443,88.2889 C4.554,94.0439 6.462,102.9229 10.115,108.9789 C11.313,110.9659 12.826,112.6549 14.319,114.4179 C16.127,116.5509 17.029,118.7769 17.729,121.4559 C18.891,125.9019 20.964,129.7799 24.566,132.7319 C28.393,135.8689 33.237,137.6469 38.205,137.4259 C38.245,137.4239 38.272,137.4049 38.309,137.3999 C39.973,143.6499 42.817,149.5049 47.025,154.6379 C53.23,162.2059 61.579,167.7299 70.089,172.3859 C74.48,174.7879 78.977,177.0039 83.494,179.1609 C84.833,179.7999 86.191,180.4299 87.568,181.0219 C87.51,181.1459 87.473,181.2899 87.473,181.4579 L87.473,189.2769 C87.206,189.5649 87.076,189.9859 87.286,190.4329 C88.908,193.8799 91.141,197.7909 95.395,198.0899 C99.57,198.3829 102.61,194.9449 104.525,191.6759 C104.79,191.2229 104.653,190.7959 104.363,190.5139 L104.363,183.9459 C107.828,183.2749 111.015,181.6999 114.042,179.6859 C113.993,179.6509 113.953,179.6029 113.906,179.5649 C120.949,175.0529 127.914,170.4159 134.781,165.6389 C141.066,161.2679 147.605,156.9679 153.098,151.5959 C153.486,151.2159 153.841,150.8029 154.215,150.4089 C154.456,150.3649 154.688,150.2359 154.864,149.9889 C155.095,149.6669 155.311,149.3369 155.533,149.0089 C155.558,148.9809 155.585,148.9569 155.608,148.9299 C155.603,148.9269 155.599,148.9249 155.593,148.9219 C157.85,145.5669 159.681,141.9399 161.044,138.1349 C161.097,138.1569 161.153,138.1679 161.207,138.1909 C161.36,137.5979 161.491,137.0009 161.627,136.4039 C161.679,136.2379 161.738,136.0739 161.789,135.9079 C161.825,135.7889 161.823,135.6829 161.82,135.5779 C161.827,135.5469 161.836,135.5149 161.843,135.4839 C161.939,135.5259 162.038,135.5679 162.158,135.5799 C166.306,135.9779 170.137,134.0479 173.092,131.2559 C176.186,128.3299 179.106,124.1069 179.678,119.8079 C179.812,118.7979 179.793,117.7699 179.554,116.7749 C179.27,115.6029 178.335,114.5099 178.646,113.2689 C178.901,112.2509 179.728,111.3509 180.224,110.4409 C180.787,109.4089 181.235,108.3019 181.557,107.1719 C182.153,105.0729 182.308,102.8469 182.023,100.6849" id="Fill-3" fill="#231F20" mask="url(#mask-2)"></path>
            </g>
            <g id="eyes" transform="translate(64.104669, 78.240861)" fill="#231F20">
                <path d="M27.2282306,35.358639 C26.4992306,40.006639 24.4952306,45.016639 20.9852306,48.268639 C16.8022306,52.144639 10.9472306,50.812639 7.43223056,46.742639 C4.21123056,43.013639 2.84823056,37.740639 2.84019423,32.899639 C2.83123056,27.626639 4.49423056,22.366639 7.60923056,18.103639 C7.95723056,18.113639 8.29523056,18.151639 8.62423056,18.218639 C8.64923056,18.173639 8.67723056,18.132639 8.69623056,18.080639 C9.95023056,14.611639 15.0272306,14.209639 18.0442306,15.019639 C20.9272306,15.794639 23.0972306,17.691639 24.4712306,20.192639 C24.2522306,20.467639 24.1882306,20.846639 24.4452306,21.237639 C25.0042306,22.085639 25.4622306,22.977639 25.8642306,23.891639 C25.9852306,24.382639 26.0952306,24.879639 26.1942306,25.377639 L26.4142306,25.300639 C27.5152306,28.501639 27.7602306,31.969639 27.2282306,35.358639 M27.7332306,23.120639 C26.9912306,20.293639 25.6882306,17.548639 23.4282306,15.635639 C21.1322306,13.690639 18.1352306,12.610639 15.1242306,12.654639 C12.4062306,12.693639 9.43123056,13.655639 7.74223056,15.800639 C7.40723056,15.607639 6.99123056,15.617639 6.67223056,16.023639 C-0.121769437,24.666639 -1.58376944,38.290639 5.36023056,47.342639 C8.71723056,51.721639 14.7472306,54.275639 19.9302306,51.483639 C24.6542306,48.938639 27.4282306,43.172639 28.6862306,38.183639 C29.9432306,33.196639 29.7822306,27.817639 27.7332306,23.120639" id="Fill-8"></path>
                <path d="M50.8845306,25.300939 C50.9565306,25.325939 51.0305306,25.351939 51.1035306,25.376939 C51.2015306,24.878939 51.3125306,24.382939 51.4345306,23.891939 C51.8345306,22.977939 52.2935306,22.084939 52.8525306,21.237939 C53.1105306,20.846939 53.0445306,20.467939 52.8255306,20.192939 C54.1995306,17.691939 56.3695306,15.793939 59.2525306,15.019939 C62.2705306,14.208939 67.3485306,14.611939 68.6015306,18.079939 C68.6205306,18.132939 68.6485306,18.173939 68.6725306,18.218939 C69.0015306,18.151939 69.3415306,18.113939 69.6895306,18.103939 C72.8035306,22.365939 74.4665306,27.625939 74.4575669,32.899939 C74.4485306,37.739939 73.0855306,43.013939 69.8645306,46.741939 C66.3505306,50.812939 60.4945306,52.144939 56.3125306,48.268939 C52.8025306,45.016939 50.7985306,40.006939 50.0695306,35.358939 C49.5375306,31.969939 49.7815306,28.500939 50.8845306,25.300939 M48.6115306,38.183939 C49.8685306,43.172939 52.6435306,48.938939 57.3665306,51.483939 C62.5505306,54.275939 68.5795306,51.721939 71.9385306,47.342939 C78.8805306,38.289939 77.4185306,24.665939 70.6255306,16.023939 C70.3065306,15.616939 69.8905306,15.607939 69.5565306,15.800939 C67.8655306,13.654939 64.8915306,12.693939 62.1745306,12.654939 C59.1615306,12.610939 56.1645306,13.690939 53.8685306,15.635939 C51.6095306,17.548939 50.3075306,20.292939 49.5645306,23.119939 C47.5155306,27.817939 47.3545306,33.196939 48.6115306,38.183939" id="Fill-10"></path>
                <path d="M73.8503306,10.151539 C69.7783306,6.64353904 64.3163306,5.93953904 59.1453306,5.58953904 C58.0873306,5.51753904 58.0923306,7.16453904 59.1453306,7.23553904 C63.8333306,7.55353904 68.9803306,8.12453904 72.6853306,11.315539 C73.4853306,12.004539 74.6553306,10.843539 73.8503306,10.151539" id="Fill-12"></path>
                <path d="M22.4313306,31.603739 C22.4093306,31.502739 22.3653306,31.406739 22.3383306,31.306739 C22.4073306,29.974739 22.1863306,28.663739 21.7203306,27.447739 C21.5813306,26.783739 21.4053306,26.130739 21.1673306,25.507739 C20.3163306,23.273739 18.5033306,21.178739 15.8723306,21.630739 C14.8363306,21.808739 13.9473306,22.343739 13.1913306,23.052739 C12.3183306,23.541739 11.5333306,24.207739 10.8903306,25.021739 C9.97533056,26.179739 9.42533056,27.538739 9.14633056,28.963739 C8.53133056,30.957739 8.50733056,33.155739 8.97133056,35.172739 C9.32033056,36.688739 10.0913306,38.186739 11.2193306,39.220739 C11.4263306,39.487739 11.6483306,39.743739 11.8913306,39.983739 C13.0233306,41.098739 14.5493306,41.662739 16.0503306,41.518739 C17.0133306,41.523739 17.9943306,41.271739 18.9243306,40.679739 C21.8603306,38.811739 23.1943306,34.927739 22.4313306,31.603739" id="Fill-16"></path>
                <path d="M66.6706306,24.455239 C63.5276306,21.833239 58.6756306,23.034239 56.2776306,26.089239 C55.4896306,27.093239 55.0186306,28.210239 54.7976306,29.369239 C53.8656306,30.288239 53.7786306,31.746239 54.1096306,33.077239 C54.1296306,34.442239 54.4566306,35.802239 55.1376306,36.996239 C55.5896306,37.788239 56.1866306,38.475239 56.8666306,39.065239 C56.9646306,39.164239 57.0496306,39.275239 57.1546306,39.365239 C57.7396306,39.869239 58.3896306,40.223239 59.0686306,40.460239 C60.1326306,40.921239 61.2856306,41.178239 62.4526306,41.1704204 C62.5346306,41.1704204 62.5966306,41.141239 62.6686306,41.125239 C63.0286306,41.102239 63.3916306,41.056239 63.7556306,40.955239 C65.7366306,40.405239 67.2326306,38.765239 68.1116306,36.966239 C69.9386306,33.228239 70.1496306,27.358239 66.6706306,24.455239" id="Fill-18"></path>
                <path d="M20.8923306,0.429939039 C16.4653306,6.41993904 8.61133056,9.62993904 1.25533056,8.45093904 C-0.00366943681,8.24893904 -0.545669437,10.175939 0.724330563,10.378939 C9.04833056,11.713939 17.6093306,8.22093904 22.6193306,1.43893904 C23.3843306,0.402939039 21.6503306,-0.595060961 20.8923306,0.429939039" id="Fill-20"></path>
            </g>
            <path d="M109.9228,134.1102 C109.8378,133.5772 109.1718,133.2802 108.6928,133.4122 C108.1238,133.5682 107.9088,134.1072 107.9938,134.6422 C108.3928,137.1482 106.3588,139.8442 103.8588,140.2002 C101.2338,140.5742 98.5348,138.3232 98.3518,135.7012 C98.2628,134.4232 96.2618,134.4142 96.3518,135.7012 C96.5588,138.6612 98.7458,141.2382 101.6098,142.0072 C104.5008,142.7842 107.4288,141.3602 108.9748,138.8752 C109.8678,137.4382 110.1868,135.7732 109.9228,134.1102" id="nose" fill="#231F20"></path>
            <path d="M105.4648,160.2635 C105.2978,161.7375 104.8558,163.8985 103.0658,164.1435 C101.4028,164.3705 101.1218,161.6705 100.9848,160.5575 C100.7178,158.4035 100.9718,156.2385 101.6628,154.1925 C102.6358,153.6335 104.0418,154.2635 104.6798,155.0715 C105.7968,156.4885 105.6548,158.5845 105.4648,160.2635 M106.3308,153.9585 C105.0598,152.2625 102.6628,151.4625 100.7868,152.4075 C100.4758,152.4385 100.2218,152.6275 100.0498,152.8975 C100.0338,152.9105 100.0178,152.9205 100.0018,152.9345 C99.7188,153.1815 99.6538,153.4735 99.7078,153.7465 C98.9308,156.0845 98.7058,158.5805 99.0448,161.0245 C99.3558,163.2645 100.2358,166.3755 103.0988,166.1395 C105.7228,165.9225 106.9988,163.5065 107.3468,161.1595 C107.6998,158.7815 107.8558,155.9925 106.3308,153.9585" id="mouth" fill="#231F20"></path>
        </g>
    </g>
</svg>

<svg width="500" height="600" xmlns="http://www.w3.org/2000/svg" xmlns:xlink="http://www.w3.org/1999/xlink"><defs><path id="a" d="M0 .454h182.161v197.653H.001z"/></defs><g fill="none" fill-rule="evenodd"><g transform="translate(169 58.546)"><mask id="b" fill="#fff"><use xlink:href="#a"/></mask><path d="M172.495 104.535a166.116 166.116 0 01-.879 4.533c-.069.234-.12.472-.15.715-.653 3.113-1.363 6.22-2.057 9.314-.383 1.707-.862 4-2.491 4.992-.93.565-3.586.36-3.359-1.235a1.024 1.024 0 00-.252-.841c.132-8.737-1.169-17.39-2.82-26.02a2.104 2.104 0 001.442-.944c.07-.106.14-.21.213-.313a4.041 4.041 0 01.199-.25c.065-.076.132-.151.2-.226.324-.356.683-.663 1.04-.984l.009-.01.004-.002c.082-.058.164-.118.246-.174a10.336 10.336 0 011.508-.865c.045-.021.091-.043.137-.062.135-.061.092-.043-.13.052.09-.113.511-.195.638-.238a10.819 10.819 0 011.315-.347c.099-.02.199-.036.298-.054-.003-.001-.007 0-.008-.002.001 0 .007 0 .009.002.025-.004.049-.01.074-.013.287-.05.032.019-.056.017.064.008.249-.01.42-.03a5.21 5.21 0 011.663.884c3.563 2.9 3.516 7.99 2.787 12.1m-11.212 19.763a73.72 73.72 0 01-.425 4.813 4.535 4.535 0 00-.237 1.915 62.02 62.02 0 01-.956 4.947 47.126 47.126 0 01-5.694 11.789l-.024-.027c-2.855 3.262-6.218 6.097-9.691 8.699-6.52 4.885-13.28 9.474-20.046 14.006a663.93 663.93 0 01-12.111 7.92.99.99 0 00-.41.5c-1.325.828-2.692 1.579-4.147 2.168-5.438 2.197-11.213 1.196-16.551-.778-5.016-1.856-9.824-4.38-14.588-6.801-8.522-4.33-17.003-9.164-23.92-15.85-7.166-6.93-11.757-15.658-13.307-25.516-1.608-10.22-.254-20.7 1.146-30.86.667-4.842 1.371-9.704 1.898-14.58 4.799 2.555 9.913 3.123 13.708-2.78 1.773-2.76 2.924-5.86 3.617-9.093 2.743 1.8 5.756 2.758 9.073 1.854 3.219-.877 5.773-3.393 7.232-6.317 1.26-2.527 1.003-5.807 2.309-8.193 3.06 1.719 6.443 2.798 9.909 2.926 7.939.293 12.316-5.733 14.789-12.523 3.908 2.043 8.844 2.068 12.689-.2.25.629.538 1.242.861 1.84 1.491 4.483 5.443 8.04 10.014 9.386 2.988.88 6.141.729 8.985-.557.065-.03.132-.066.197-.097-.043 5.918 1.218 11.675 5.622 16.26 3.934 4.096 9.601 5.728 14.802 4.666.017.08.031.163.047.244.005.126.012.25.016.377a7.14 7.14 0 00.564 2.505c.359 1.766.719 3.532 1.074 5.295 2.122 10.532 4.112 21.27 3.555 32.062m-58.766 66.836c-1.555 2.528-3.877 5.22-7.122 4.957-3.122-.254-4.816-3.378-6.049-5.964a.96.96 0 00.127-.48v-7.84c3.342 1.313 6.802 2.298 10.398 2.48.85.043 1.676.008 2.492-.062v6.416c0 .18.066.344.154.493m-66-67.791a.405.405 0 00-.132.089c-.086.093-.158.222-.147.353.003.038-.001.075-.003.113a.995.995 0 01-.029.107c-.016.03-.032.058-.05.086a12.58 12.58 0 01-.114.116.516.516 0 00-.138.31l-.013-.002a.939.939 0 00-.91.018c-1.873 1.012-3.693-.704-4.836-2.065-1.343-1.603-2.269-3.577-3.217-5.425-1.981-3.86-3.704-8.162-3.097-12.583.476-3.46 2.471-7.194 6.102-8.083 2.962-.725 6.709.515 7.661 3.644a.922.922 0 00.762.67c-1.064 7.533-1.97 15.074-1.839 22.652M99.186 3.83a24.948 24.948 0 00-4.564-1.323c1.598.136 3.144.598 4.564 1.323m82.837 96.855c-.151-1.146-.474-2.216-.779-3.327-.394-1.438-.103-2.614.217-4.03 1.047-4.628-.444-9.534-3.866-12.812 3.085-7.248 1.282-16.171-4.569-21.53.053-1.364-.359-2.57-1.01-3.674a5.73 5.73 0 00-1.974-2.53 35.424 35.424 0 00-.88-.896c-.151-.15-.313-.297-.478-.448-.345-2.881-.708-5.818-1.381-8.6a24.782 24.782 0 00-.135-1.3c-.442-3.26-1.495-7.136-3.892-9.54-1.635-1.641-4.283-2.351-6.294-1.255-1.058-2.558-2.552-4.985-4.433-7.032-.976-1.535-2.233-2.88-3.873-3.892-2.35-1.45-5.077-1.596-7.519-.836-.483-3.513-2.808-6.705-6.26-7.962-3.983-1.452-8.647.266-11.082 3.63-2.258-2.875-4.826-5.711-8.377-6.871-2.74-.894-6.003-.628-8.306 1.126-.102-.098-.203-.202-.306-.296-.075-.07-.157-.127-.233-.194C104.126 3.87 99.378.685 94.124.466 88.487.229 83.219 3.529 80.55 8.374c-3.76-3.515-9.812-4.216-14.34-1.751-.593.323-1.149.709-1.672 1.136-.582.475-1.102 1.22-1.772 1.566-.937.483-1.831-.3-2.673-.683a10.747 10.747 0 00-2.453-.792c-3.223-.603-6.623.16-9.174 2.247-2.174 1.778-3.54 4.399-3.908 7.159a18.729 18.729 0 00-2.174 3.418c-4.203-4.243-12.314-3.768-15.451 1.63-.909 1.564-1.334 3.357-2.235 4.923-.397.69-.893 1.346-1.616 1.722-1.199.624-2.637.383-3.931.346-3.972-.116-7.004 2.28-8.276 6.003-1.251 3.664-.191 7.387 1.492 10.75.325.812.712 1.598 1.169 2.352-5.719 2.089-8.209 10.013-5.28 15.21.042.473.107.942.197 1.405-4.895 1.737-8.645 6.51-8.445 11.87C.209 82.31 4.315 86.96 9.443 88.29c-4.889 5.755-2.981 14.634.672 20.69 1.198 1.987 2.711 3.676 4.204 5.439 1.808 2.133 2.71 4.359 3.41 7.038 1.162 4.446 3.235 8.324 6.837 11.276 3.827 3.137 8.671 4.915 13.639 4.694.04-.002.067-.021.104-.026 1.664 6.25 4.508 12.105 8.716 17.238 6.205 7.568 14.554 13.092 23.064 17.748 4.391 2.402 8.888 4.618 13.405 6.775 1.339.639 2.697 1.269 4.074 1.86a1.015 1.015 0 00-.095.437v7.819c-.267.288-.397.709-.187 1.156 1.622 3.447 3.855 7.358 8.109 7.657 4.175.293 7.215-3.145 9.13-6.414.265-.453.128-.88-.162-1.162v-6.568c3.465-.671 6.652-2.246 9.679-4.26-.049-.035-.089-.083-.136-.121a659.872 659.872 0 0020.875-13.926c6.285-4.371 12.824-8.671 18.317-14.043.388-.38.743-.793 1.117-1.187.241-.044.473-.173.649-.42.231-.322.447-.652.669-.98.025-.028.052-.052.075-.08l-.015-.007a48.836 48.836 0 005.451-10.787c.053.022.109.033.163.056.153-.593.284-1.19.42-1.787.052-.166.111-.33.162-.496a.982.982 0 00.031-.33l.023-.094c.096.042.195.084.315.096 4.148.398 7.979-1.532 10.934-4.324 3.094-2.926 6.014-7.15 6.586-11.448.134-1.01.115-2.038-.124-3.033-.284-1.172-1.219-2.265-.908-3.506.255-1.018 1.082-1.918 1.578-2.828a16.017 16.017 0 001.333-3.27c.596-2.098.751-4.324.466-6.486" fill="#231F20" mask="url(#b)"/></g><g fill="#231F20"><path d="M260.333 171.6c-.73 4.647-2.733 9.657-6.243 12.91-4.183 3.875-10.038 2.543-13.553-1.527-3.221-3.729-4.584-9.002-4.592-13.843-.01-5.273 1.654-10.533 4.769-14.796.348.01.686.048 1.015.115.025-.045.053-.086.072-.138 1.254-3.469 6.33-3.87 9.348-3.06 2.883.774 5.053 2.671 6.427 5.172-.22.275-.283.654-.026 1.045.559.848 1.017 1.74 1.419 2.654.12.491.23.988.33 1.486l.22-.077c1.1 3.201 1.346 6.67.814 10.058m.505-12.238c-.742-2.827-2.045-5.572-4.305-7.485a12.673 12.673 0 00-8.304-2.98c-2.718.038-5.693 1-7.382 3.145-.335-.193-.751-.183-1.07.223-6.794 8.643-8.256 22.267-1.312 31.32 3.357 4.378 9.387 6.932 14.57 4.14 4.724-2.545 7.498-8.31 8.756-13.3 1.257-4.987 1.096-10.366-.953-15.063m23.152 2.181l.218.076c.098-.498.21-.994.331-1.485.4-.914.86-1.807 1.418-2.654.258-.391.192-.77-.027-1.045 1.374-2.501 3.544-4.4 6.427-5.173 3.018-.811 8.096-.408 9.35 3.06.018.053.046.094.07.139a5.951 5.951 0 011.017-.115c3.114 4.262 4.777 9.522 4.768 14.796-.009 4.84-1.372 10.114-4.593 13.842-3.514 4.07-9.37 5.403-13.552 1.527-3.51-3.252-5.514-8.262-6.243-12.91-.532-3.39-.288-6.858.815-10.058m-2.273 12.883c1.257 4.989 4.032 10.755 8.755 13.3 5.184 2.792 11.213.238 14.572-4.141 6.942-9.053 5.48-22.677-1.313-31.32-.319-.406-.735-.415-1.069-.222-1.69-2.146-4.665-3.107-7.382-3.146a12.674 12.674 0 00-8.306 2.98c-2.259 1.914-3.56 4.658-4.304 7.485-2.049 4.698-2.21 10.077-.953 15.064m25.239-28.033c-4.072-3.508-9.534-4.212-14.705-4.562-1.058-.072-1.053 1.575 0 1.646 4.688.318 9.835.89 13.54 4.08.8.69 1.97-.472 1.165-1.164"/><path d="M255.536 167.845c-.022-.101-.066-.197-.093-.297a9.416 9.416 0 00-.618-3.86 12.763 12.763 0 00-.553-1.94c-.851-2.233-2.664-4.328-5.295-3.876-1.036.178-1.925.713-2.681 1.422a7.785 7.785 0 00-2.301 1.969c-.915 1.158-1.465 2.517-1.744 3.942-.615 1.994-.639 4.192-.175 6.209.349 1.516 1.12 3.014 2.248 4.048.207.267.429.523.672.763 1.132 1.115 2.658 1.679 4.159 1.535a5.235 5.235 0 002.874-.84c2.936-1.867 4.27-5.751 3.507-9.075m44.239-7.149c-3.143-2.622-7.995-1.42-10.393 1.634a7.54 7.54 0 00-1.48 3.28c-.932.92-1.019 2.377-.688 3.708.02 1.365.347 2.725 1.028 3.92a8.016 8.016 0 001.73 2.068c.097.1.182.21.287.3a5.872 5.872 0 001.914 1.095 8.393 8.393 0 003.384.71c.082 0 .144-.029.216-.045.36-.023.723-.069 1.087-.17 1.981-.55 3.477-2.19 4.356-3.989 1.827-3.738 2.038-9.608-1.44-12.51m-45.779-24.027c-4.427 5.99-12.281 9.2-19.637 8.022-1.259-.202-1.801 1.725-.531 1.928 8.324 1.335 16.885-2.158 21.895-8.94.765-1.036-.969-2.034-1.727-1.01"/></g><path d="M278.923 192.11c-.085-.533-.751-.83-1.23-.698-.57.156-.784.695-.7 1.23.4 2.506-1.634 5.202-4.134 5.558-2.625.374-5.324-1.877-5.507-4.499-.09-1.278-2.09-1.287-2 0 .207 2.96 2.394 5.537 5.258 6.306 2.89.777 5.819-.647 7.365-3.132a6.895 6.895 0 00.948-4.765m-4.458 26.153c-.167 1.475-.61 3.636-2.4 3.88-1.662.227-1.943-2.472-2.08-3.585-.267-2.154-.013-4.32.678-6.365.973-.56 2.379.07 3.017.878 1.117 1.417.975 3.513.785 5.192m.866-6.305c-1.271-1.696-3.668-2.495-5.544-1.55-.311.03-.565.22-.737.49-.016.013-.032.023-.048.037-.283.246-.348.538-.294.811a16.091 16.091 0 00-.663 7.278c.31 2.24 1.19 5.351 4.054 5.115 2.624-.216 3.9-2.633 4.248-4.98.353-2.377.509-5.166-1.016-7.2" fill="#231F20"/></g></svg>
